X:2
T:We'll Never be Drunkards
S:Band of Hope Tune Book no 42
C:Frederick A. Bridge
N:in fact he was just the arranger but ABC doesn't have an arranger field
Z:Jack Campin May 2000
M:3/4
L:1/8
K:Ab
  Ac|e2 ef ed|c2 A2 A2|B2 E2 E2|c2 A2
  Ac|e2 ef ed|c2 A2 A2|B2 E2 E2|A2 z2||
|:A2|B2 E2 E2|c2 A2 A2|B2 E2 E2|c2 A2
  Ac|e2 ef ed|c2 A2 A2|B2 e2 e2|A4   :|
W:
W:In the ways of true temp'rance see children delighting,
W:So joyful and happy wherever we go.
W:If firm to the purpose in which we're united,
W:WE SHALL NEVER BE DRUNKARDS, Oh NEVER, OH NO!
W:
W:CH:  Oh NEVER, oh never, OH NEVER, Oh never,
W:     WE SHALL NEVER BE DRUNKARDS, Oh NEVER, OH NO!
W:
W:The first little drop of strong drink that is taken,
W:Is the first step to ruin: e'en children may know,
W:If the first little drop be in earnest forsaken,
W:WE SHALL NEVER BE DRUNKARDS, OH NEVER, OH NO!
W:
W:Then free from the ruin strong drink would occasion,
W:WE'LL STAND BY OUR TEMPERANCE WHEREVER WE GO!
W:And if bad men should tempt, we'll resist their persuasion,
W:AND NEVER BE DRUNKARDS - OH NEVER, OH NO!
